X:0109
T:Soldiers Joy.
M:C|
L:1/8
Q:1/2=104
I: :: ::
Z:Jack Campin * www.campin.me.uk * 2009
K:D
FG|AFDF AFDF|A2d4   cB|AFDF AFDF|G2E4
FG|AFDF AFDF|A2d4   fg|afdf gece|d2d4 :|
e2|fefg fagf|edcd efge|fefg fagf|edcB A2
A2|fefg fagf|edcd efge|afdf gece|d2d4 :|

